; generated by PrusaSlicer 2.3.3+linux-x64 on 2022-02-11 at 18:19:18 UTC

; 

; external perimeters extrusion width = 0.45mm
; perimeters extrusion width = 0.45mm
; infill extrusion width = 0.45mm
; solid infill extrusion width = 0.45mm
; top infill extrusion width = 0.40mm
; first layer extrusion width = 0.42mm

M73 P0 R149
M201 X9000 Y9000 Z500 E10000 ; sets maximum accelerations, mm/sec^2
M203 X500 Y500 Z12 E120 ; sets maximum feedrates, mm/sec
M204 P2000 R1500 T2000 ; sets acceleration (P, T) and retract acceleration (R), mm/sec^2
M205 X10.00 Y10.00 Z0.20 E2.50 ; sets the jerk limits, mm/sec
M205 S0 T0 ; sets the minimum extruding and travel feed rate, mm/sec
M107
;TYPE:Custom
M862.3 P "MK2S" ; printer model check
M862.1 P0.4 ; nozzle diameter check
M115 U3.2.3 ; tell printer latest fw version
G90 ; use absolute coordinates
M83 ; extruder relative mode
M204 S2000 T1500 ; MK2 firmware only supports the old M204 format
M104 S230 ; set extruder temp
M140 S85 ; set bed temp
M190 S85 ; wait for bed temp
M109 S230 ; wait for extruder temp
G28 W ; home all without mesh bed level
G80 ; mesh bed leveling
G1 Y-3.0 F1000.0 ; go outside print area
G92 E0.0
G1 X60.0 E9.0  F1000.0 ; intro line
M73 P0 R148
G1 X100.0 E12.5 F1000.0 ; intro line
G92 E0.0
G21 ; set units to millimeters
G90 ; use absolute coordinates
M83 ; use relative distances for extrusion
M900 K0.08 ; Filament gcode LA 1.5
M900 K45 ; Filament gcode LA 1.0
;LAYER_CHANGE
;Z:0.2
;HEIGHT:0.2
;BEFORE_LAYER_CHANGE
G92 E0.0
;0.2


G1 E-1.00000 F2100.000
G1 Z0.200 F10800.000
;AFTER_LAYER_CHANGE
;0.2
G1 Z0.400
G1 X62.760 Y53.052
G1 Z0.200
G1 E1.00000 F2100.000
M204 S1000
;TYPE:Skirt
;WIDTH:0.42
G1 F1200.000
G1 X64.435 Y52.357 E0.05685
G1 X65.907 Y52.019 E0.04736
G1 X67.330 Y51.911 E0.04473
G1 X172.373 Y51.910 E3.29355
G1 X174.280 Y52.097 E0.06009
G1 X176.090 Y52.639 E0.05922
G1 X177.497 Y53.346 E0.04939
G1 X179.033 Y54.498 E0.06019
G1 X180.303 Y55.905 E0.05945
G1 X181.298 Y57.564 E0.06064
G1 X181.949 Y59.383 E0.06056
G1 X182.231 Y61.253 E0.05930
G1 X182.234 Y127.276 E2.07011
G1 X182.131 Y128.288 E0.03189
G1 X181.837 Y129.597 E0.04209
G1 X181.496 Y130.562 E0.03207
G1 X181.077 Y131.448 E0.03075
G1 X180.552 Y132.318 E0.03186
G1 X179.724 Y133.379 E0.04219
G1 X179.001 Y134.107 E0.03216
G1 X178.221 Y134.744 E0.03160
G1 X177.013 Y135.504 E0.04472
G1 X175.641 Y136.106 E0.04700
G1 X173.871 Y136.549 E0.05719
G1 X172.408 Y136.664 E0.04601
G1 X67.327 Y136.664 E3.29475
G1 X65.974 Y136.565 E0.04255
G1 X64.970 Y136.369 E0.03206
G1 X63.993 Y136.069 E0.03206
G1 X62.755 Y135.520 E0.04246
G1 X61.879 Y134.998 E0.03194
G1 X61.060 Y134.387 E0.03206
G1 X60.082 Y133.455 E0.04235
G1 X59.412 Y132.638 E0.03313
G1 X58.655 Y131.438 E0.04449
G1 X58.066 Y130.105 E0.04569
G1 X57.680 Y128.708 E0.04544
G1 X57.502 Y127.220 E0.04699
G1 X57.502 Y61.357 E2.06508
G1 X57.599 Y60.336 E0.03218
G1 X57.803 Y59.329 E0.03220
G1 X58.223 Y58.058 E0.04198
G1 X58.658 Y57.132 E0.03205
G1 X59.185 Y56.258 E0.03202
G1 X60.012 Y55.198 E0.04214
G1 X60.735 Y54.470 E0.03219
G1 X61.518 Y53.830 E0.03170
G1 X62.710 Y53.084 E0.04408
; printing object Front id:0 copy 0
;WIPE_START
G1 F8640.000
G1 X64.435 Y52.357 E-0.43237
G1 X65.907 Y52.019 E-0.34876
G1 X66.637 Y51.964 E-0.16887
;WIPE_END
G1 E-0.05000 F2100.000
G1 Z0.400 F10800.000
G1 X105.832 Y94.000
G1 Z0.200
G1 E1.00000 F2100.000
;TYPE:Perimeter
G1 F1200.000
G1 X133.906 Y94.000 E0.88025
G1 X133.906 Y110.574 E0.51967
G1 X105.832 Y110.574 E0.88025
G1 X105.832 Y94.060 E0.51779
G1 X106.209 Y94.377 F10800.000
;TYPE:External perimeter
G1 F1200.000
G1 X133.529 Y94.377 E0.85660
G1 X133.529 Y110.197 E0.49602
G1 X106.209 Y110.197 E0.85660
G1 X106.209 Y94.437 E0.49414
G1 X106.072 Y94.001 F10800.000
;WIPE_START
G1 F8640.000
G1 X110.323 Y94.428 E-0.95000
;WIPE_END
G1 E-0.05000 F2100.000
G1 Z0.400 F10800.000
G1 X92.082 Y71.500
G1 Z0.200
G1 E1.00000 F2100.000
;TYPE:Perimeter
G1 F1200.000
G1 X147.656 Y71.500 E1.74249
G1 X147.656 Y78.074 E0.20613
G1 X92.082 Y78.074 E1.74249
G1 X92.082 Y71.560 E0.20425
G1 X92.459 Y71.877 F10800.000
;TYPE:External perimeter
G1 F1200.000
G1 X147.279 Y71.877 E1.71884
G1 X147.279 Y77.697 E0.18248
G1 X92.459 Y77.697 E1.71884
G1 X92.459 Y71.937 E0.18060
G1 X92.271 Y71.524 F10800.000
;WIPE_START
G1 F8640.000
G1 X96.573 Y71.933 E-0.95000
;WIPE_END
G1 E-0.05000 F2100.000
G1 Z0.400 F10800.000
G1 X92.459 Y55.075
G1 Z0.200
G1 E1.00000 F2100.000
;TYPE:Perimeter
G1 F1200.000
G1 X172.356 Y55.075 E2.50511
G1 X173.034 Y55.108 E0.02129
G1 X173.353 Y55.147 E0.01010
G1 X173.671 Y55.202 E0.01012
G1 X174.324 Y55.366 E0.02111
G1 X174.624 Y55.465 E0.00989
G1 X175.239 Y55.720 E0.02088
G1 X175.826 Y56.034 E0.02088
G1 X176.362 Y56.392 E0.02020
G1 X176.877 Y56.814 E0.02087
G1 X177.342 Y57.280 E0.02065
G1 X177.760 Y57.789 E0.02065
G1 X178.126 Y58.337 E0.02065
G1 X178.437 Y58.918 E0.02066
G1 X178.692 Y59.533 E0.02087
G1 X178.790 Y59.832 E0.00987
G1 X178.954 Y60.485 E0.02113
G1 X179.008 Y60.795 E0.00987
G1 X179.073 Y61.458 E0.02088
G1 X179.074 Y127.110 E2.05846
G1 X179.008 Y127.779 E0.02110
G1 X178.954 Y128.090 E0.00987
G1 X178.790 Y128.743 E0.02113
G1 X178.692 Y129.042 E0.00987
G1 X178.437 Y129.657 E0.02087
G1 X178.123 Y130.245 E0.02089
G1 X177.954 Y130.511 E0.00988
G1 X177.554 Y131.051 E0.02109
G1 X177.348 Y131.290 E0.00988
G1 X176.877 Y131.761 E0.02089
G1 X176.362 Y132.183 E0.02087
G1 X176.105 Y132.365 E0.00987
G1 X175.526 Y132.711 E0.02113
G1 X175.245 Y132.852 E0.00986
G1 X174.631 Y133.107 E0.02087
G1 X173.993 Y133.301 E0.02090
G1 X173.685 Y133.370 E0.00988
G1 X173.027 Y133.467 E0.02088
G1 X172.352 Y133.500 E0.02118
G1 X67.379 Y133.500 E3.29137
M73 P0 R147
G1 X67.047 Y133.492 E0.01041
G1 X66.384 Y133.427 E0.02088
G1 X65.731 Y133.297 E0.02088
G1 X65.427 Y133.213 E0.00988
G1 X64.793 Y132.986 E0.02111
G1 X64.211 Y132.711 E0.02020
G1 X63.640 Y132.368 E0.02088
G1 X63.111 Y131.976 E0.02065
G1 X62.617 Y131.529 E0.02088
G1 X62.400 Y131.301 E0.00988
G1 X61.973 Y130.780 E0.02111
G1 X61.792 Y130.523 E0.00988
G1 X61.449 Y129.952 E0.02088
G1 X61.168 Y129.356 E0.02065
G1 X60.943 Y128.729 E0.02088
G1 X60.859 Y128.425 E0.00988
G1 X60.729 Y127.772 E0.02088
G1 X60.665 Y127.117 E0.02065
G1 X60.665 Y61.458 E2.05868
G1 X60.729 Y60.803 E0.02065
G1 X60.858 Y60.157 E0.02065
G1 X61.049 Y59.526 E0.02066
G1 X61.301 Y58.918 E0.02065
G1 X61.612 Y58.337 E0.02065
G1 X61.978 Y57.789 E0.02065
G1 X62.396 Y57.280 E0.02066
G1 X62.861 Y56.814 E0.02065
G1 X63.371 Y56.396 E0.02065
G1 X63.918 Y56.030 E0.02065
G1 X64.499 Y55.720 E0.02065
G1 X65.108 Y55.468 E0.02065
G1 X65.738 Y55.276 E0.02065
G1 X66.384 Y55.148 E0.02065
G1 X67.043 Y55.083 E0.02075
G1 X67.870 Y55.074 E0.02593
G1 X92.399 Y55.075 E0.76910
G1 X92.399 Y54.697 F10800.000
;TYPE:External perimeter
G1 F1200.000
G1 X172.365 Y54.698 E2.50728
G1 X173.066 Y54.732 E0.02201
G1 X173.409 Y54.774 E0.01082
G1 X173.749 Y54.833 E0.01084
G1 X174.429 Y55.004 E0.02198
G1 X174.755 Y55.111 E0.01076
G1 X175.400 Y55.378 E0.02189
G1 X176.016 Y55.708 E0.02190
G1 X176.590 Y56.091 E0.02165
G1 X177.130 Y56.534 E0.02189
G1 X177.622 Y57.026 E0.02181
G1 X178.063 Y57.564 E0.02181
G1 X178.450 Y58.143 E0.02181
G1 X178.778 Y58.756 E0.02182
G1 X179.046 Y59.401 E0.02189
G1 X179.153 Y59.727 E0.01074
G1 X179.323 Y60.407 E0.02199
G1 X179.382 Y60.745 E0.01074
G1 X179.450 Y61.440 E0.02190
G1 X179.450 Y127.133 E2.05977
G1 X179.382 Y127.830 E0.02197
G1 X179.323 Y128.168 E0.01074
G1 X179.153 Y128.848 E0.02199
G1 X179.046 Y129.174 E0.01074
G1 X178.778 Y129.819 E0.02189
G1 X178.449 Y130.435 E0.02190
G1 X178.265 Y130.724 E0.01075
G1 X177.848 Y131.287 E0.02197
G1 X177.624 Y131.547 E0.01076
G1 X177.130 Y132.041 E0.02190
G1 X176.590 Y132.484 E0.02189
G1 X176.310 Y132.681 E0.01075
G1 X175.708 Y133.041 E0.02200
G1 X175.403 Y133.195 E0.01073
G1 X174.758 Y133.463 E0.02189
G1 X174.089 Y133.665 E0.02192
G1 X173.754 Y133.740 E0.01074
G1 X173.064 Y133.843 E0.02189
G1 X172.361 Y133.877 E0.02205
G1 X67.374 Y133.877 E3.29181
G1 X67.024 Y133.869 E0.01099
G1 X66.329 Y133.800 E0.02190
G1 X65.644 Y133.664 E0.02190
G1 X65.313 Y133.573 E0.01075
G1 X64.653 Y133.337 E0.02198
G1 X64.029 Y133.041 E0.02165
G1 X63.430 Y132.682 E0.02190
G1 X62.871 Y132.268 E0.02181
G1 X62.354 Y131.799 E0.02190
G1 X62.117 Y131.551 E0.01075
G1 X61.673 Y131.009 E0.02198
G1 X61.475 Y130.728 E0.01075
G1 X61.116 Y130.129 E0.02190
G1 X60.819 Y129.501 E0.02181
G1 X60.584 Y128.843 E0.02190
G1 X60.492 Y128.513 E0.01075
G1 X60.356 Y127.828 E0.02190
G1 X60.288 Y127.135 E0.02181
G1 X60.288 Y61.440 E2.05984
G1 X60.356 Y60.747 E0.02182
G1 X60.492 Y60.065 E0.02181
G1 X60.694 Y59.399 E0.02182
G1 X60.960 Y58.756 E0.02182
G1 X61.288 Y58.143 E0.02181
G1 X61.674 Y57.564 E0.02181
G1 X62.116 Y57.026 E0.02182
G1 X62.608 Y56.534 E0.02181
G1 X63.146 Y56.093 E0.02182
G1 X63.724 Y55.706 E0.02181
G1 X64.338 Y55.378 E0.02181
G1 X64.980 Y55.112 E0.02182
G1 X65.646 Y54.910 E0.02181
G1 X66.329 Y54.774 E0.02182
G1 X67.022 Y54.706 E0.02185
G1 X67.868 Y54.697 E0.02651
G1 X92.339 Y54.697 E0.76728
G1 X92.599 Y55.044 F10800.000
;WIPE_START
G1 F8640.000
G1 X96.453 Y54.697 E-0.95000
;WIPE_END
G1 E-0.05000 F2100.000
G1 Z0.400 F10800.000
G1 X177.973 Y58.311
M73 P1 R147
G1 Z0.200
G1 E1.00000 F2100.000
;TYPE:Solid infill
;WIDTH:0.420926
G1 F1200.000
G1 X176.682 Y57.020 E0.05735
G1 X176.193 Y56.619 E0.01989
G1 X175.681 Y56.276 E0.01938
G1 X175.093 Y55.965 E0.02091
G1 X178.191 Y59.064 E0.13773
G1 X178.426 Y59.631 E0.01931
G1 X178.523 Y59.930 E0.00989
G1 X174.226 Y55.633 E0.19103
G1 X173.522 Y55.464 E0.02275
G1 X178.693 Y60.635 E0.22985
G1 X178.768 Y61.244 E0.01930
G1 X172.909 Y55.385 E0.26044
G1 X172.347 Y55.357 E0.01769
G1 X178.790 Y61.801 E0.28643
G1 X178.790 Y62.336 E0.01680
G1 X171.812 Y55.357 E0.31019
G1 X171.277 Y55.357 E0.01680
G1 X178.790 Y62.870 E0.33395
G1 X178.790 Y63.405 E0.01680
G1 X170.743 Y55.358 E0.35771
G1 X170.208 Y55.358 E0.01680
G1 X178.790 Y63.939 E0.38147
G1 X178.790 Y64.474 E0.01680
G1 X169.674 Y55.358 E0.40523
G1 X169.139 Y55.358 E0.01680
G1 X178.790 Y65.009 E0.42899
G1 X178.790 Y65.543 E0.01680
G1 X168.605 Y55.358 E0.45275
G1 X168.070 Y55.358 E0.01680
G1 X178.790 Y66.078 E0.47651
G1 X178.790 Y66.612 E0.01680
G1 X167.536 Y55.358 E0.50027
G1 X167.001 Y55.358 E0.01680
G1 X178.790 Y67.147 E0.52403
G1 X178.790 Y67.682 E0.01680
G1 X166.467 Y55.358 E0.54779
G1 X165.932 Y55.358 E0.01680
G1 X178.790 Y68.216 E0.57156
G1 X178.790 Y68.751 E0.01680
G1 X165.398 Y55.358 E0.59532
G1 X164.863 Y55.358 E0.01680
G1 X178.790 Y69.285 E0.61908
G1 X178.790 Y69.820 E0.01680
G1 X164.328 Y55.358 E0.64284
G1 X163.794 Y55.358 E0.01680
G1 X178.790 Y70.354 E0.66660
G1 X178.790 Y70.889 E0.01680
G1 X163.259 Y55.358 E0.69036
G1 X162.725 Y55.358 E0.01680
G1 X178.790 Y71.424 E0.71412
G1 X178.790 Y71.958 E0.01680
G1 X162.190 Y55.358 E0.73788
G1 X161.656 Y55.358 E0.01680
G1 X178.790 Y72.493 E0.76164
G1 X178.790 Y73.027 E0.01680
G1 X161.121 Y55.358 E0.78540
G1 X160.587 Y55.358 E0.01680
G1 X178.790 Y73.562 E0.80916
G1 X178.790 Y74.097 E0.01680
G1 X160.052 Y55.358 E0.83292
G1 X159.518 Y55.358 E0.01680
G1 X178.790 Y74.631 E0.85668
G1 X178.790 Y75.166 E0.01680
G1 X158.983 Y55.358 E0.88045
G1 X158.449 Y55.358 E0.01680
G1 X178.790 Y75.700 E0.90421
G1 X178.790 Y76.235 E0.01680
G1 X157.914 Y55.359 E0.92797
G1 X157.379 Y55.359 E0.01680
G1 X178.790 Y76.769 E0.95173
G1 X178.790 Y77.304 E0.01680
G1 X156.845 Y55.359 E0.97549
M73 P1 R146
G1 X156.310 Y55.359 E0.01680
G1 X178.790 Y77.839 E0.99925
G1 X178.790 Y78.373 E0.01680
G1 X155.776 Y55.359 E1.02301
G1 X155.241 Y55.359 E0.01680
G1 X178.790 Y78.908 E1.04677
G1 X178.790 Y79.442 E0.01680
G1 X154.707 Y55.359 E1.07053
G1 X154.172 Y55.359 E0.01680
G1 X178.790 Y79.977 E1.09429
G1 X178.790 Y80.512 E0.01680
G1 X153.638 Y55.359 E1.11805
G1 X153.103 Y55.359 E0.01680
G1 X178.790 Y81.046 E1.14181
G1 X178.790 Y81.581 E0.01680
G1 X152.569 Y55.359 E1.16558
G1 X152.034 Y55.359 E0.01680
G1 X178.790 Y82.115 E1.18934
G1 X178.790 Y82.650 E0.01680
G1 X151.500 Y55.359 E1.21310
G1 X150.965 Y55.359 E0.01680
G1 X178.790 Y83.185 E1.23686
G1 X178.790 Y83.719 E0.01680
G1 X150.430 Y55.359 E1.26062
G1 X149.896 Y55.359 E0.01680
G1 X178.790 Y84.254 E1.28438
G1 X178.790 Y84.788 E0.01680
G1 X149.361 Y55.359 E1.30814
G1 X148.827 Y55.359 E0.01680
G1 X178.790 Y85.323 E1.33190
G1 X178.790 Y85.857 E0.01680
G1 X148.292 Y55.359 E1.35566
G1 X147.758 Y55.359 E0.01680
G1 X178.790 Y86.392 E1.37942
G1 X178.790 Y86.927 E0.01680
G1 X147.223 Y55.359 E1.40318
G1 X146.689 Y55.359 E0.01680
G1 X178.790 Y87.461 E1.42694
G1 X178.790 Y87.996 E0.01680
G1 X146.154 Y55.359 E1.45071
G1 X145.620 Y55.360 E0.01680
G1 X178.790 Y88.530 E1.47447
G1 X178.791 Y89.065 E0.01680
G1 X145.085 Y55.360 E1.49823
G1 X144.551 Y55.360 E0.01680
G1 X178.791 Y89.600 E1.52199
G1 X178.791 Y90.134 E0.01680
G1 X144.016 Y55.360 E1.54575
G1 X143.481 Y55.360 E0.01680
G1 X178.791 Y90.669 E1.56951
G1 X178.791 Y91.203 E0.01680
G1 X142.947 Y55.360 E1.59327
G1 X142.412 Y55.360 E0.01680
G1 X178.791 Y91.738 E1.61703
M73 P2 R146
G1 X178.791 Y92.273 E0.01680
G1 X141.878 Y55.360 E1.64079
M73 P2 R145
G1 X141.343 Y55.360 E0.01680
G1 X178.791 Y92.807 E1.66455
G1 X178.791 Y93.342 E0.01680
G1 X140.809 Y55.360 E1.68831
G1 X140.274 Y55.360 E0.01680
G1 X178.791 Y93.876 E1.71207
G1 X178.791 Y94.411 E0.01680
G1 X139.740 Y55.360 E1.73583
G1 X139.205 Y55.360 E0.01680
G1 X178.791 Y94.945 E1.75960
G1 X178.791 Y95.480 E0.01680
G1 X138.671 Y55.360 E1.78336
G1 X138.136 Y55.360 E0.01680
G1 X178.791 Y96.015 E1.80712
G1 X178.791 Y96.549 E0.01680
G1 X137.602 Y55.360 E1.83088
G1 X137.067 Y55.360 E0.01680
G1 X178.791 Y97.084 E1.85464
G1 X178.791 Y97.618 E0.01680
G1 X136.532 Y55.360 E1.87840
G1 X135.998 Y55.360 E0.01680
G1 X178.791 Y98.153 E1.90216
G1 X178.791 Y98.688 E0.01680
G1 X135.463 Y55.360 E1.92592
G1 X134.929 Y55.360 E0.01680
G1 X178.791 Y99.222 E1.94968
G1 X178.791 Y99.757 E0.01680
G1 X134.394 Y55.360 E1.97344
G1 X133.860 Y55.360 E0.01680
G1 X178.791 Y100.291 E1.99720
G1 X178.791 Y100.826 E0.01680
G1 X133.325 Y55.361 E2.02096
G1 X132.791 Y55.361 E0.01680
G1 X178.791 Y101.360 E2.04473
G1 X178.791 Y101.895 E0.01680
G1 X132.256 Y55.361 E2.06849
G1 X131.722 Y55.361 E0.01680
G1 X147.579 Y71.218 E0.70485
G1 X147.939 Y71.218 E0.01132
G1 X147.939 Y71.578 E0.01132
G1 X178.791 Y102.430 E1.37138
G1 X178.791 Y102.964 E0.01680
G1 X147.939 Y72.112 E1.37138
M73 P2 R144
G1 X147.939 Y72.647 E0.01680
G1 X178.791 Y103.499 E1.37138
G1 X178.791 Y104.033 E0.01680
G1 X147.939 Y73.182 E1.37138
G1 X147.939 Y73.716 E0.01680
G1 X178.791 Y104.568 E1.37139
G1 X178.791 Y105.103 E0.01680
G1 X147.939 Y74.251 E1.37139
G1 X147.939 Y74.785 E0.01680
G1 X178.791 Y105.637 E1.37139
G1 X178.791 Y106.172 E0.01680
G1 X147.939 Y75.320 E1.37139
G1 X147.939 Y75.854 E0.01680
G1 X178.791 Y106.706 E1.37139
G1 X178.791 Y107.241 E0.01680
G1 X147.939 Y76.389 E1.37139
G1 X147.939 Y76.924 E0.01680
G1 X178.791 Y107.776 E1.37139
G1 X178.791 Y108.310 E0.01680
G1 X147.939 Y77.458 E1.37139
G1 X147.939 Y77.993 E0.01680
G1 X178.791 Y108.845 E1.37139
G1 X178.791 Y109.379 E0.01680
G1 X147.769 Y78.357 E1.37895
M73 P3 R144
G1 X147.234 Y78.357 E0.01680
G1 X178.791 Y109.914 E1.40271
G1 X178.791 Y110.448 E0.01680
G1 X146.700 Y78.357 E1.42647
G1 X146.165 Y78.357 E0.01680
G1 X178.791 Y110.983 E1.45024
G1 X178.791 Y111.518 E0.01680
G1 X145.630 Y78.357 E1.47400
G1 X145.096 Y78.357 E0.01680
G1 X178.791 Y112.052 E1.49776
G1 X178.791 Y112.587 E0.01680
G1 X144.561 Y78.357 E1.52152
G1 X144.027 Y78.357 E0.01680
G1 X178.791 Y113.121 E1.54529
G1 X178.791 Y113.656 E0.01680
G1 X143.492 Y78.357 E1.56905
G1 X142.957 Y78.357 E0.01680
G1 X178.791 Y114.191 E1.59281
G1 X178.791 Y114.725 E0.01680
G1 X142.423 Y78.357 E1.61657
G1 X141.888 Y78.357 E0.01680
G1 X178.791 Y115.260 E1.64034
G1 X178.791 Y115.794 E0.01680
G1 X141.354 Y78.357 E1.66410
G1 X140.819 Y78.357 E0.01680
G1 X178.791 Y116.329 E1.68786
G1 X178.791 Y116.864 E0.01680
G1 X140.285 Y78.357 E1.71163
M73 P3 R143
G1 X139.750 Y78.357 E0.01680
G1 X178.791 Y117.398 E1.73539
G1 X178.791 Y117.933 E0.01680
G1 X139.215 Y78.357 E1.75915
G1 X138.681 Y78.357 E0.01680
G1 X178.791 Y118.467 E1.78291
G1 X178.791 Y119.002 E0.01680
G1 X138.146 Y78.357 E1.80668
G1 X137.612 Y78.357 E0.01680
